svg/u1f1fb.svg

<svg viewBox="0 0 128 128" xmlns="http://www.w3.org/2000/svg">
  <path d="m114.75 17.2c-0.44-0.63-1.17-1.01-1.94-1.01h-22.31c-0.98 0-1.86 0.6-2.21 1.51l-24.29 63.31-24.29-63.31c-0.35-0.91-1.23-1.51-2.21-1.51h-22.3c-0.77 0-1.5 0.38-1.94 1.01s-0.55 1.45-0.28 2.17l36.95 99.96c0.01 0 0.01 0 0.01 0.01 0.06 0.18 0.16 0.35 0.27 0.51 0.02 0.02 0.04 0.04 0.05 0.06 0.04 0.06 0.1 0.11 0.14 0.16 0.1 0.11 0.2 0.21 0.32 0.31 0.06 0.05 0.12 0.09 0.19 0.13 0.13 0.08 0.26 0.14 0.4 0.2 0.07 0.02 0.13 0.05 0.19 0.07 0.21 0.06 0.43 0.1 0.66 0.1h23.71c0.23 0 0.45-0.04 0.65-0.1 0.07-0.02 0.13-0.05 0.2-0.07 0.14-0.06 0.27-0.12 0.4-0.2 0.07-0.04 0.13-0.08 0.19-0.13 0.12-0.09 0.22-0.19 0.32-0.31 0.05-0.05 0.1-0.1 0.14-0.16 0.02-0.02 0.04-0.03 0.05-0.06 0.11-0.16 0.2-0.33 0.27-0.51v-0.01l36.95-99.96c0.25-0.73 0.15-1.54-0.29-2.17z" fill="#40C0E7"/>
</svg>

<svg viewBox="0 0 128 128" xmlns="http://www.w3.org/2000/svg">
  <defs/>
  <path d="M114.75,17.2 C114.31,16.57 113.58,16.19 112.81,16.19 L90.5,16.19 C89.52,16.19 88.64,16.79 88.29,17.7 L64,81.01 L39.71,17.7 C39.36,16.79 38.48,16.19 37.5,16.19 L15.2,16.19 C14.43,16.19 13.7,16.57 13.26,17.2 C12.82,17.83 12.71,18.65 12.98,19.37 L49.93,119.33 C49.94,119.33 49.94,119.33 49.94,119.34 C50,119.52 50.1,119.69 50.21,119.85 C50.23,119.87 50.25,119.89 50.26,119.91 C50.3,119.97 50.36,120.02 50.4,120.07 C50.5,120.18 50.6,120.28 50.72,120.38 C50.78,120.43 50.84,120.47 50.91,120.51 C51.04,120.59 51.17,120.65 51.31,120.71 C51.38,120.73 51.44,120.76 51.5,120.78 C51.71,120.84 51.93,120.88 52.16,120.88 L75.87,120.88 C76.1,120.88 76.32,120.84 76.52,120.78 C76.59,120.76 76.65,120.73 76.72,120.71 C76.86,120.65 76.99,120.59 77.12,120.51 C77.19,120.47 77.25,120.43 77.31,120.38 C77.43,120.29 77.53,120.19 77.63,120.07 C77.68,120.02 77.73,119.97 77.77,119.91 C77.79,119.89 77.81,119.88 77.82,119.85 C77.93,119.69 78.02,119.52 78.09,119.34 L78.09,119.33 L115.04,19.37 C115.29,18.64 115.19,17.83 114.75,17.2 Z" fill="#40C0E7"/>
</svg>
